X:20102
T:Walter Bulwer's No. 2
R:Polka
B:Tuneworks Tunebook 2 (https://www.tuneworks.co.uk/)
G:Tuneworks
Z:Jon Warbrick <jon.warbrick@googlemail.com>
M:4/4
K:G
|: "G" D2 G2 G2 FG | "C" A2 E2 E4 | "D" FG A2 AB A2 | "G" B2 G2 G3 E |
"G" D2 G2 G2 FG | "C" A2 E2 E4 | "D" FG A2 D2 EF | "G" G2 G2 G4 :|
|: "D" A2 A2 B2 B2 | "D" A2 A2 F4 | "A" G2 G2 EF G2 | "D" A2 A2 FG A2 |
"D" A2 A2 B4 | "D" A2 A2 F4 | "A" G2 G2 EGFE | "D" D2 F2 D4 :|
